X: 4133
T: Blue Boat
R: reel
M: 4/4
K: Bminor
|:d2 cBcd fc-|c BA2 ABcd|B2 cdcF cf|d2 cdc ff e|
d2 cBcd Ff-|f dcB A2 Bc|AFBc cdec|1 B2BA B4:|2 B2BA Bcde||
|:f3 efge2-|e2df dcB2-|BdBd cBA2|BAFA AdBA|
dcB2 ABcF|cdc2 ded2|cBcd ef3-|fef4:|

